icons/octagon-32.svg

<?xml version="1.0" encoding="UTF-8"?><svg id="icons" xmlns="http://www.w3.org/2000/svg" viewBox="0 0 32 32"><path d="m22.09003,2h-11.18005l-7.90997,7.90997v11.17999l7.90997,7.91003h11.18005l7.90997-7.91003v-11.17999l-7.90997-7.90997Zm6.90997,18.67999l-7.32001,7.32001h-10.35999l-7.32001-7.32001v-10.35999l7.32001-7.32001h10.35999l7.32001,7.32001v10.35999Z" style="stroke-width:0px;"/><rect width="32" height="32" style="fill:none; stroke-width:0px;"/></svg>

<svg xmlns="http://www.w3.org/2000/svg" viewBox="0 0 32 32"><path d="M22.09 2H10.91L3 9.91v11.18L10.91 29h11.18L30 21.09V9.91L22.09 2zM29 20.68L21.68 28H11.32L4 20.68V10.32L11.32 3h10.36L29 10.32v10.36z" stroke-width="0"/><path fill="none" stroke-width="0" d="M0 0h32v32H0z"/></svg>
